svgs/duotone/building-wheat.svg

<svg xmlns="http://www.w3.org/2000/svg" viewBox="0 0 640 512"><!--! Font Awesome Pro 6.4.2 by @fontawesome - https://fontawesome.com License - https://fontawesome.com/license (Commercial License) Copyright 2023 Fonticons, Inc. --><path class="fa-primary" style="fill:var(--fa-primary-color,inherit);opacity:var(--fa-primary-opacity,1);" d="M640 208l0-16-16 0c-44.2 0-80 35.8-80 80l0 16 16 0c44.2 0 80-35.8 80-80zm0 96l-16 0c-44.2 0-80 35.8-80 80l0 16 16 0c44.2 0 80-35.8 80-80l0-16zm0 112l-16 0c-44.2 0-80 35.8-80 80l0 16 16 0c44.2 0 80-35.8 80-80l0-16zM512 512l0-16c0-44.2-35.8-80-80-80l-16 0 0 16c0 44.2 35.8 80 80 80l16 0zm0-128c0-44.2-35.8-80-80-80l-16 0 0 16c0 44.2 35.8 80 80 80l16 0 0-16zm0-96l0-16c0-44.2-35.8-80-80-80l-16 0 0 16c0 44.2 35.8 80 80 80l16 0zM552 56c0-13.3-10.7-24-24-24s-24 10.7-24 24l0 104c0 13.3 10.7 24 24 24s24-10.7 24-24l0-104zm48 16c-13.3 0-24 10.7-24 24l0 32c0 13.3 10.7 24 24 24s24-10.7 24-24l0-32c0-13.3-10.7-24-24-24zM480 96c0-13.3-10.7-24-24-24s-24 10.7-24 24l0 32c0 13.3 10.7 24 24 24s24-10.7 24-24l0-32z"/><path class="fa-secondary" style="fill:var(--fa-secondary-color,inherit);opacity:var(--fa-secondary-opacity,.4);" d="M0 48C0 21.5 21.5 0 48 0H336c26.5 0 48 21.5 48 48V464c0 26.5-21.5 48-48 48H240V432c0-26.5-21.5-48-48-48s-48 21.5-48 48v80H48c-26.5 0-48-21.5-48-48V48zM80 224c-8.8 0-16 7.2-16 16v32c0 8.8 7.2 16 16 16h32c8.8 0 16-7.2 16-16V240c0-8.8-7.2-16-16-16H80zm80 16v32c0 8.8 7.2 16 16 16h32c8.8 0 16-7.2 16-16V240c0-8.8-7.2-16-16-16H176c-8.8 0-16 7.2-16 16zm112-16c-8.8 0-16 7.2-16 16v32c0 8.8 7.2 16 16 16h32c8.8 0 16-7.2 16-16V240c0-8.8-7.2-16-16-16H272zM64 112v32c0 8.8 7.2 16 16 16h32c8.8 0 16-7.2 16-16V112c0-8.8-7.2-16-16-16H80c-8.8 0-16 7.2-16 16zM176 96c-8.8 0-16 7.2-16 16v32c0 8.8 7.2 16 16 16h32c8.8 0 16-7.2 16-16V112c0-8.8-7.2-16-16-16H176zm80 16v32c0 8.8 7.2 16 16 16h32c8.8 0 16-7.2 16-16V112c0-8.8-7.2-16-16-16H272c-8.8 0-16 7.2-16 16z"/></svg>

<svg xmlns="http://www.w3.org/2000/svg" viewBox="0 0 640 512"><!--! Font Awesome Pro 6.1.1 by @fontawesome - https://fontawesome.com License - https://fontawesome.com/license (Commercial License) Copyright 2022 Fonticons, Inc. --><defs><style>.fa-secondary{opacity:.4}</style></defs><path class="fa-primary" d="M560 288H544V272C544 227.8 579.8 192 624 192H640V208C640 252.2 604.2 288 560 288zM640 304V320C640 364.2 604.2 400 560 400H544V384C544 339.8 579.8 304 624 304H640zM640 416V432C640 476.2 604.2 512 560 512H544V496C544 451.8 579.8 416 624 416H640zM496 512C451.8 512 416 476.2 416 432V416H432C476.2 416 512 451.8 512 496V512H496zM512 384V400H496C451.8 400 416 364.2 416 320V304H432C476.2 304 512 339.8 512 384zM496 288C451.8 288 416 252.2 416 208V192H432C476.2 192 512 227.8 512 272V288H496zM552 160C552 173.3 541.3 184 528 184C514.7 184 504 173.3 504 160V56C504 42.75 514.7 32 528 32C541.3 32 552 42.75 552 56V160zM600 72C613.3 72 624 82.75 624 96V128C624 141.3 613.3 152 600 152C586.7 152 576 141.3 576 128V96C576 82.75 586.7 72 600 72zM480 128C480 141.3 469.3 152 456 152C442.7 152 432 141.3 432 128V96C432 82.75 442.7 72 456 72C469.3 72 480 82.75 480 96V128z"/><path class="fa-secondary" d="M336 0C362.5 0 384 21.49 384 48V464C384 490.5 362.5 512 336 512H240V432C240 405.5 218.5 384 192 384C165.5 384 144 405.5 144 432V512H48C21.49 512 0 490.5 0 464V48C0 21.49 21.49 0 48 0H336zM64 272C64 280.8 71.16 288 80 288H112C120.8 288 128 280.8 128 272V240C128 231.2 120.8 224 112 224H80C71.16 224 64 231.2 64 240V272zM176 224C167.2 224 160 231.2 160 240V272C160 280.8 167.2 288 176 288H208C216.8 288 224 280.8 224 272V240C224 231.2 216.8 224 208 224H176zM256 272C256 280.8 263.2 288 272 288H304C312.8 288 320 280.8 320 272V240C320 231.2 312.8 224 304 224H272C263.2 224 256 231.2 256 240V272zM80 96C71.16 96 64 103.2 64 112V144C64 152.8 71.16 160 80 160H112C120.8 160 128 152.8 128 144V112C128 103.2 120.8 96 112 96H80zM160 144C160 152.8 167.2 160 176 160H208C216.8 160 224 152.8 224 144V112C224 103.2 216.8 96 208 96H176C167.2 96 160 103.2 160 112V144zM272 96C263.2 96 256 103.2 256 112V144C256 152.8 263.2 160 272 160H304C312.8 160 320 152.8 320 144V112C320 103.2 312.8 96 304 96H272z"/></svg>
